X: 41611
T: Up In The Air
R: jig
M: 6/8
K: Bminor
FBB BAB|c2c AFE|FBB BAB|cBA B2B|
FBB BAB|c2c ABc|def ecA|FBB B2A|
FBB BAB|Bcc AFE|FBB FBB|cBA B2B|
FBB BAB|c2c ABc|def ecA|FBB B2B||
d2d ede|fdB BAB|B2d ede|fdA B2B|
d2d ede|fdB def|gfe dBA|FBB B2A|
d2d ede|fdB BAB|d2d ede|fdA B2B|
d2d ede|fgf ecA|f2f ecA|FBB B2A||

